X: 26857
T: Mine Ain Hoose
R: reel
M: 4/4
K: Gmajor
G|Bddg bg/e/ dB|ge/d/ BG BAAd|Bddg adfa|ge/d/ BA G3|
G|Bd de/f/|g/f/e/d/ gB|cedB A2D/F/A/c/|Bd de/f/ g/f/e/d/ gB|cA d3/2c/ BGG2||

